X:1
T:Polobocul
Z:Tous aux Balkans !
F:http://www.tousauxbalkans.net/Polobocul
O:Moldavie, Roumanie
Q:1/4=112
M:4/4
L:1/16
K:D
|: "D"FGA2 z2D2 FGA2 z4 | "Gm"{c}_B2BA AGFG "D"A8 :|
|: "Em"E4 A{/A}GG{/G}F "D"F{/F}EED FGA2 | "A"^GAB{/B}A A{/A}=GG{/G}F "D"F{/F}EED FGA2 |
"Em"E4 A{/A}GG{/G}F "D"F{/F}EED FGA2 | "A"^GAB{/B}A A{/A}=GG{/G}F "D"F{/F}EED D4 :|

